icons/t.svg

<?xml version="1.0" encoding="UTF-8" standalone="no"?>
<svg width="35px" height="33px" viewBox="0 0 35 33" version="1.1" xmlns="http://www.w3.org/2000/svg" xmlns:xlink="http://www.w3.org/1999/xlink" xmlns:sketch="http://www.bohemiancoding.com/sketch/ns">
    <!-- Generator: Sketch 3.2.2 (9983) - http://www.bohemiancoding.com/sketch -->
    <title>twitter</title>
    <desc>Created with Sketch.</desc>
    <defs>
        <filter x="-50%" y="-50%" width="200%" height="200%" filterUnits="objectBoundingBox" id="filter-1">
            <feOffset dx="0" dy="0" in="SourceAlpha" result="shadowOffsetOuter1"></feOffset>
            <feGaussianBlur stdDeviation="3" in="shadowOffsetOuter1" result="shadowBlurOuter1"></feGaussianBlur>
            <feColorMatrix values="0 0 0 0 0.627577594   0 0 0 0 0.627577594   0 0 0 0 0.627577594  0 0 0 0.326024683 0" in="shadowBlurOuter1" type="matrix" result="shadowMatrixOuter1"></feColorMatrix>
            <feMerge>
                <feMergeNode in="shadowMatrixOuter1"></feMergeNode>
                <feMergeNode in="SourceGraphic"></feMergeNode>
            </feMerge>
        </filter>
    </defs>
    <g id="Page-1" stroke="none" stroke-width="1" fill="none" fill-rule="evenodd" sketch:type="MSPage">
        <g id="Group" sketch:type="MSLayerGroup" transform="translate(-25.000000, -28.000000)" fill-opacity="0.789855072" filter="url(#filter-1)" fill="#FFFFFF">
            <path d="M56,35.6044402 C55.0075933,36.0467037 53.9379333,36.3475024 52.816276,36.4770543 C53.9617035,35.790578 54.8382304,34.7020441 55.2556949,33.406525 C54.1830637,34.0438608 52.9990096,34.5054826 51.7347309,34.7541627 C50.7244965,33.6760525 49.2863982,33 47.6937933,33 C44.6333774,33 42.1538462,35.485312 42.1538462,38.5528631 C42.1538462,38.9876811 42.2028722,39.4135644 42.2979531,39.8215784 C37.6939584,39.5863003 33.6114229,37.3764722 30.8793331,34.017057 C30.4009574,34.8405307 30.1290855,35.7920671 30.1290855,36.8106132 C30.1290855,38.7360227 31.1066359,40.4350887 32.5937603,41.4327873 C31.686035,41.4044944 30.830307,41.1528361 30.0830307,40.7388656 L30.0830307,40.8103425 C30.0830307,43.4996616 31.9935622,45.7422499 34.5295477,46.253012 C34.0615715,46.3795858 33.5713107,46.4495736 33.0706504,46.4495736 C32.7140971,46.4495736 32.3634863,46.4153242 32.0262463,46.3483146 C32.7319247,48.5536754 34.779135,50.1619061 37.202212,50.2036009 C35.3050512,51.6941925 32.9161439,52.5802085 30.3207329,52.5802085 C29.8735556,52.5802085 29.4323209,52.5563828 29,52.5027751 C31.4513041,54.0827129 34.3601849,55 37.4904259,55 C47.6789369,55 53.2500825,46.5374306 53.2500825,39.2006227 C53.2500825,38.9593881 53.2456256,38.7211317 53.2352261,38.4843644 C54.3212281,37.693651 55.2556949,36.7182889 56,35.6044402 L56,35.6044402 Z" id="twitter" sketch:type="MSShapeGroup"></path>
        </g>
    </g>
</svg>

<svg width="35" height="33" viewBox="0 0 35 33" xmlns="http://www.w3.org/2000/svg"><title>twitter</title><desc>Created with Sketch.</desc><defs><filter x="-50%" y="-50%" width="200%" height="200%" filterUnits="objectBoundingBox" id="a"><feOffset in="SourceAlpha" result="shadowOffsetOuter1"/><feGaussianBlur stdDeviation="3" in="shadowOffsetOuter1" result="shadowBlurOuter1"/><feColorMatrix values="0 0 0 0 0.627577594 0 0 0 0 0.627577594 0 0 0 0 0.627577594 0 0 0 0.326024683 0" in="shadowBlurOuter1" result="shadowMatrixOuter1"/><feMerge><feMergeNode in="shadowMatrixOuter1"/><feMergeNode in="SourceGraphic"/></feMerge></filter></defs><g fill="none" fill-rule="evenodd"><g transform="translate(-25 -28)" fill-opacity=".79" filter="url(#a)" fill="#fff"><path d="M56 35.604c-.992.443-2.062.744-3.184.873 1.146-.686 2.022-1.775 2.44-3.07-1.073.637-2.257 1.098-3.52 1.347C50.723 33.676 49.285 33 47.693 33c-3.06 0-5.54 2.485-5.54 5.553 0 .435.05.86.144 1.27-4.604-.237-8.687-2.447-11.42-5.806-.477.824-.75 1.775-.75 2.794 0 1.926.98 3.625 2.466 4.623-.908-.03-1.764-.28-2.51-.694v.07c0 2.69 1.91 4.932 4.446 5.443-.468.127-.96.197-1.46.197-.356 0-.707-.035-1.044-.102.706 2.206 2.753 3.814 5.176 3.856-1.897 1.49-4.286 2.376-6.88 2.376-.448 0-.89-.024-1.322-.077C31.45 54.083 34.36 55 37.49 55c10.19 0 15.76-8.463 15.76-15.8 0-.24-.004-.48-.015-.716 1.086-.79 2.02-1.766 2.765-2.88z"/></g></g></svg>
